X:1
T:Tom Connor's
M:4/4
L:1/8
R:hornpipe
K:Gmaj
|:dBGF GBdB|cAFA DGFE|DGGF GBdB|ecBc Agfe|
d2 cA G3 B|AcFA DAFA|g3 f ecAF|BAGF GABc||
|:d2 g2 d2 g2|d2 g2 fd^cd|eaag abag|fgag fdBd|
d2 cA G3 B|AcFA DAFA|g3 f ecAF|BAGF GABc:|
